localPackages/DesignSystem/Sources/DesignSystem/Resources/Assets.xcassets/IconSet/ic-arrow-up-line.imageset/ic-arrow-up-line.svg

<svg width="24" height="24" viewBox="0 0 24 24" fill="none" xmlns="http://www.w3.org/2000/svg">
<g id="ic-arrow-up-line">
<path id="Icon" fill-rule="evenodd" clip-rule="evenodd" d="M11.4698 1.72189C11.7626 1.42913 12.2374 1.42913 12.5302 1.72189L18.5302 7.7197C18.8232 8.01253 18.8233 8.48741 18.5304 8.78035C18.2376 9.0733 17.7627 9.07339 17.4698 8.78055L12.7474 4.05995L12.7474 17.25C12.7474 17.6643 12.4116 18 11.9974 18C11.5832 18 11.2474 17.6643 11.2474 17.25L11.2474 4.06507L6.53023 8.78055C6.23729 9.07339 5.76241 9.0733 5.46957 8.78035C5.17673 8.48741 5.17682 8.01253 5.46977 7.7197L11.4698 1.72189ZM3 20.2501C3 19.8359 3.33579 19.5001 3.75 19.5001H20.25C20.6642 19.5001 21 19.8359 21 20.2501C21 20.6643 20.6642 21.0001 20.25 21.0001H3.75C3.33579 21.0001 3 20.6643 3 20.2501Z" fill="#0F0F0F"/>
</g>
</svg>

<svg xmlns="http://www.w3.org/2000/svg" width="24" height="24" viewBox="0 0 24 24">
  <g class="ic-arrow-up-line">
    <path fill-rule="evenodd" d="M11.47 1.722a.75.75 0 0 1 1.06 0l6 5.997a.75.75 0 1 1-1.06 1.061l-4.723-4.72v13.19a.75.75 0 0 1-1.5 0V4.065L6.53 8.78a.75.75 0 1 1-1.06-1.06l6-5.998ZM3 20.25a.75.75 0 0 1 .75-.75h16.5a.75.75 0 1 1 0 1.5H3.75a.75.75 0 0 1-.75-.75Z" class="Icon"/>
  </g>
</svg>
